X: 359
T: To Limerick We Go
M:9/8
L:1/8
B:O'Neill's 359
N:"Gaily."
N:"collected by Mrs. Fitzgerald."
Z:Transcribed by Chris Falt, cfalt@trytel.com
K:G
G/2A/2 \
| BdB AGA BGG | BdB AGB A2G/2A/2 | BdB AGA BGG | cBA BGE E2 ||
D \
| DEG A2A A2B | GED G2G G2E | DEG A2A A2B | B2A AGE E2 ||


